assets/icons/24px/stroke/shopping-cart-full-24px.svg

<svg width="24" height="24" viewBox="0 0 24 24" fill="none" xmlns="http://www.w3.org/2000/svg">
<g clip-path="url(#clip0_878_22535)">
<path d="M19.5 17H9.19456C8.38525 17 7.9806 17 7.70084 16.763C7.42107 16.5259 7.35462 16.1268 7.22171 15.3285L5.77829 6.65855C5.64538 5.86024 5.57893 5.46108 5.29916 5.22404C5.0194 4.98701 4.61475 4.98701 3.80544 4.98701H3M5.85715 7L17.1648 6.99315C18.8691 6.99212 19.7213 6.99161 20.2672 7.42346C20.4995 7.60723 20.6881 7.8403 20.8194 8.10585C21.1278 8.72987 20.9495 9.56315 20.5928 11.2297V11.2297C20.3503 12.3629 20.2291 12.9295 19.8837 13.3217C19.7346 13.4911 19.5579 13.634 19.3611 13.7444C18.9053 14 18.3259 14 17.167 14H7.00054" stroke="white" stroke-width="2" stroke-linecap="round" stroke-linejoin="round"/>
<path d="M20 20.5C20 21.3284 19.3284 22 18.5 22C17.6716 22 17 21.3284 17 20.5C17 19.6716 17.6716 19 18.5 19C19.3284 19 20 19.6716 20 20.5Z" fill="white"/>
<path d="M10.5 20.5C10.5 21.3284 9.82843 22 9 22C8.17157 22 7.5 21.3284 7.5 20.5C7.5 19.6716 8.17157 19 9 19C9.82843 19 10.5 19.6716 10.5 20.5Z" fill="white"/>
</g>
<path fill-rule="evenodd" clip-rule="evenodd" d="M9.96721 4.31437C9.32336 4.52893 8.95661 4.85354 8.73974 5.4022C8.66552 5.58998 8.61191 5.72618 8.57156 5.84352C8.55387 5.89494 8.54132 5.93556 8.53242 5.96753C8.6056 5.97908 8.70974 5.98842 8.86277 5.99377C9.03706 5.99987 9.24052 6 9.49999 6H16.5C16.7595 6 16.9629 5.99987 17.1372 5.99377C17.2902 5.98842 17.3944 5.97908 17.4676 5.96753C17.4587 5.93556 17.4461 5.89494 17.4284 5.84352C17.3881 5.72618 17.3345 5.58998 17.2602 5.4022C17.0434 4.85354 16.6766 4.52893 16.0328 4.31437C15.325 4.07853 14.3423 4 13 4C11.6577 4 10.675 4.07853 9.96721 4.31437ZM9.33492 2.41695C10.3763 2.06992 11.6453 2 13 2C14.3547 2 15.6237 2.06992 16.6651 2.41695C17.7704 2.78527 18.6502 3.47796 19.1202 4.66701C19.1279 4.68649 19.1358 4.70625 19.1437 4.72626C19.2664 5.03586 19.4137 5.40722 19.4656 5.76198C19.5352 6.23746 19.4448 6.69161 19.1504 7.12464C18.8129 7.62086 18.3421 7.83878 17.866 7.92813C17.4809 8.0004 17.0167 8.00021 16.5684 8.00002C16.5456 8.00001 16.5227 8 16.5 8H9.49999C9.47724 8 9.45443 8.00001 9.43158 8.00002C8.9833 8.00021 8.51905 8.0004 8.13396 7.92813C7.65789 7.83878 7.18705 7.62086 6.84961 7.12464C6.55514 6.69161 6.46475 6.23746 6.53436 5.76198C6.5863 5.40722 6.73355 5.03585 6.8563 4.72626C6.86424 4.70624 6.87207 4.68649 6.87977 4.66701C7.34977 3.47796 8.22963 2.78527 9.33492 2.41695Z" fill="white"/>
<defs>
<clipPath id="clip0_878_22535">
<rect width="24" height="24" fill="white"/>
</clipPath>
</defs>
</svg>

<svg width="24" height="24" fill="none" xmlns="http://www.w3.org/2000/svg"><g clip-path="url(#clip0_878_22535)"><path d="M19.5 17H9.195c-.81 0-1.214 0-1.494-.237s-.346-.636-.48-1.435l-1.443-8.67c-.133-.798-.2-1.197-.479-1.434-.28-.237-.684-.237-1.494-.237H3M5.857 7l11.308-.007c1.704 0 2.556-.001 3.102.43a2 2 0 0 1 .552.683c.309.624.13 1.457-.226 3.124-.243 1.133-.364 1.7-.71 2.092a2 2 0 0 1-.522.422c-.456.256-1.035.256-2.194.256H7.001" stroke="#fff" stroke-width="2" stroke-linecap="round" stroke-linejoin="round"/><path d="M20 20.5a1.5 1.5 0 1 1-3 0 1.5 1.5 0 0 1 3 0zm-9.5 0a1.5 1.5 0 1 1-3 0 1.5 1.5 0 0 1 3 0z" fill="#fff"/></g><path fill-rule="evenodd" clip-rule="evenodd" d="M9.967 4.314c-.644.215-1.01.54-1.227 1.088-.074.188-.128.324-.168.442-.018.05-.03.092-.04.124.074.011.178.02.33.026C9.038 6 9.242 6 9.5 6h7c.26 0 .463 0 .637-.006.153-.006.257-.015.33-.026a2.197 2.197 0 0 0-.039-.124c-.04-.118-.094-.254-.168-.442-.217-.548-.583-.873-1.227-1.088C15.325 4.08 14.343 4 13 4c-1.342 0-2.325.079-3.033.314zm-.632-1.897C10.376 2.07 11.645 2 13 2s2.624.07 3.665.417c1.105.368 1.985 1.061 2.455 2.25l.024.06c.122.309.27.68.322 1.035.07.475-.021.93-.316 1.363-.337.496-.808.714-1.284.803-.385.072-.85.072-1.298.072H9.432c-.449 0-.913 0-1.298-.072-.476-.09-.947-.307-1.284-.803a1.858 1.858 0 0 1-.316-1.363c.052-.355.2-.726.322-1.036l.024-.059c.47-1.189 1.35-1.882 2.455-2.25z" fill="#fff"/><defs><clipPath id="clip0_878_22535"><path fill="#fff" d="M0 0H24V24H0z"/></clipPath></defs></svg>
